flaticon/interaction/price-tag-9.svg

<svg xmlns="http://www.w3.org/2000/svg" width="32" height="32" viewBox="0 0 24 24">
    <path d="M 23.230469 13.984375 L 22.617188 13.867188 C 22.328125 13.8125 22.101562 13.621094 21.992188 13.347656 C 21.886719 13.074219 21.925781 12.785156 22.097656 12.546875 L 22.484375 12.019531 C 22.609375 11.851562 22.589844 11.617188 22.441406 11.46875 L 21.609375 10.636719 C 21.464844 10.492188 21.238281 10.46875 21.070312 10.585938 L 20.550781 10.933594 C 20.308594 11.101562 20.015625 11.125 19.742188 11.007812 C 19.476562 10.890625 19.296875 10.660156 19.25 10.367188 L 19.152344 9.722656 C 19.121094 9.515625 18.941406 9.363281 18.730469 9.363281 L 17.554688 9.363281 C 17.347656 9.363281 17.171875 9.507812 17.136719 9.707031 L 16.984375 10.5 C 16.929688 10.78125 16.746094 11.007812 16.480469 11.117188 C 16.214844 11.226562 15.925781 11.199219 15.6875 11.035156 L 15.019531 10.585938 C 14.851562 10.46875 14.625 10.492188 14.480469 10.636719 L 13.648438 11.46875 C 13.5 11.617188 13.480469 11.851562 13.605469 12.019531 L 13.992188 12.546875 C 14.164062 12.785156 14.203125 13.074219 14.09375 13.347656 C 13.988281 13.621094 13.761719 13.8125 13.472656 13.867188 L 12.859375 13.984375 C 12.65625 14.023438 12.511719 14.199219 12.511719 14.402344 L 12.511719 15.582031 C 12.511719 15.789062 12.667969 15.96875 12.875 16 L 13.519531 16.101562 C 13.808594 16.144531 14.042969 16.324219 14.160156 16.59375 C 14.277344 16.863281 14.25 17.15625 14.085938 17.398438 L 13.734375 17.917969 C 13.621094 18.085938 13.640625 18.3125 13.785156 18.457031 L 14.621094 19.289062 C 14.765625 19.4375 15 19.457031 15.171875 19.332031 L 15.699219 18.945312 C 15.933594 18.773438 16.226562 18.734375 16.5 18.84375 C 16.773438 18.949219 16.960938 19.175781 17.015625 19.464844 L 17.136719 20.078125 C 17.175781 20.28125 17.347656 20.425781 17.554688 20.425781 L 18.730469 20.425781 C 18.941406 20.425781 19.121094 20.269531 19.152344 20.0625 L 19.222656 19.609375 C 19.265625 19.316406 19.457031 19.074219 19.730469 18.964844 C 20.003906 18.851562 20.308594 18.886719 20.546875 19.0625 L 20.917969 19.332031 C 21.085938 19.457031 21.320312 19.4375 21.46875 19.289062 L 22.300781 18.457031 C 22.445312 18.3125 22.46875 18.085938 22.351562 17.917969 L 22.003906 17.398438 C 21.835938 17.15625 21.8125 16.863281 21.929688 16.59375 C 22.046875 16.324219 22.277344 16.144531 22.570312 16.101562 L 23.214844 16 C 23.421875 15.96875 23.574219 15.789062 23.574219 15.582031 L 23.574219 14.402344 C 23.574219 14.199219 23.429688 14.023438 23.230469 13.984375 Z M 22.722656 15.214844 L 22.441406 15.257812 C 21.863281 15.347656 21.382812 15.71875 21.148438 16.253906 C 20.914062 16.789062 20.972656 17.394531 21.296875 17.875 L 21.453125 18.105469 L 21.125 18.429688 L 21.050781 18.375 C 20.570312 18.023438 19.953125 17.949219 19.40625 18.175781 C 18.855469 18.402344 18.472656 18.890625 18.378906 19.480469 L 18.367188 19.574219 L 17.90625 19.574219 L 17.851562 19.304688 C 17.742188 18.730469 17.355469 18.261719 16.8125 18.050781 C 16.269531 17.835938 15.664062 17.914062 15.195312 18.257812 L 14.964844 18.429688 L 14.636719 18.101562 L 14.789062 17.875 C 15.117188 17.394531 15.171875 16.785156 14.941406 16.253906 C 14.707031 15.71875 14.222656 15.347656 13.648438 15.257812 L 13.363281 15.214844 L 13.363281 14.753906 L 13.632812 14.703125 C 14.207031 14.589844 14.675781 14.203125 14.886719 13.660156 C 15.101562 13.117188 15.019531 12.511719 14.675781 12.042969 L 14.507812 11.8125 L 14.835938 11.484375 L 15.210938 11.742188 C 15.683594 12.058594 16.277344 12.121094 16.804688 11.902344 C 17.332031 11.683594 17.710938 11.222656 17.820312 10.660156 L 17.90625 10.210938 L 18.367188 10.210938 L 18.410156 10.496094 C 18.5 11.074219 18.871094 11.554688 19.40625 11.789062 C 19.9375 12.019531 20.546875 11.964844 21.027344 11.636719 L 21.253906 11.484375 L 21.582031 11.8125 L 21.414062 12.042969 C 21.066406 12.511719 20.988281 13.117188 21.203125 13.660156 C 21.414062 14.203125 21.882812 14.589844 22.457031 14.703125 L 22.722656 14.753906 Z M 22.722656 15.214844"/>
    <path d="M18.042969 12.765625C16.871094 12.765625 15.917969 13.71875 15.917969 14.894531 15.917969 16.066406 16.871094 17.019531 18.042969 17.019531 19.21875 17.019531 20.171875 16.066406 20.171875 14.894531 20.171875 13.71875 19.21875 12.765625 18.042969 12.765625zM18.042969 16.167969C17.339844 16.167969 16.769531 15.597656 16.769531 14.894531 16.769531 14.1875 17.339844 13.617188 18.042969 13.617188 18.746094 13.617188 19.320312 14.1875 19.320312 14.894531 19.320312 15.597656 18.746094 16.167969 18.042969 16.167969zM18.050781 7.179688C18.972656 7.179688 19.726562 6.429688 19.726562 5.507812 19.726562 4.582031 18.972656 3.832031 18.050781 3.832031 17.128906 3.832031 16.375 4.582031 16.375 5.507812 16.375 6.429688 17.128906 7.179688 18.050781 7.179688zM18.050781 4.683594C18.503906 4.683594 18.875 5.050781 18.875 5.507812 18.875 5.960938 18.503906 6.328125 18.050781 6.328125 17.597656 6.328125 17.226562 5.960938 17.226562 5.507812 17.226562 5.050781 17.597656 4.683594 18.050781 4.683594zM18.050781 4.683594"/>
    <path d="M 19.269531 0.00390625 L 13.3125 0.00390625 L 2.550781 10.730469 L 2.554688 10.734375 L 0 13.28125 L 10.691406 23.996094 L 13.972656 20.855469 L 3.761719 10.734375 L 13.664062 0.855469 L 18.921875 0.855469 L 23.148438 5.074219 L 23.148438 10.558594 L 24 10.558594 L 24 4.71875 Z M 12.753906 20.84375 L 10.707031 22.804688 L 1.203125 13.285156 L 3.160156 11.332031 Z M 12.753906 20.84375"/>
</svg>

<svg xmlns="http://www.w3.org/2000/svg" width="32" height="32" viewBox="0 0 24 24">
    <path d="M23.23 13.984l-.613-.117a.83.83 0 0 1-.625-.52.83.83 0 0 1 .106-.8l.386-.527a.423.423 0 0 0-.043-.551l-.832-.832a.421.421 0 0 0-.539-.051l-.52.348a.82.82 0 0 1-.808.074.828.828 0 0 1-.492-.64l-.098-.645a.425.425 0 0 0-.422-.36h-1.175a.42.42 0 0 0-.418.344l-.153.793a.829.829 0 0 1-.504.617.822.822 0 0 1-.793-.082l-.667-.45a.421.421 0 0 0-.54.052l-.832.832a.423.423 0 0 0-.043.55l.387.528a.82.82 0 0 1 .102.8.819.819 0 0 1-.621.52l-.614.117a.426.426 0 0 0-.347.418v1.18c0 .207.156.387.363.418l.645.102c.289.043.523.222.64.492.117.27.09.562-.074.804l-.352.52a.426.426 0 0 0 .051.539l.836.832a.422.422 0 0 0 .55.043l.528-.387a.818.818 0 0 1 .801-.101c.273.105.46.332.516.62l.12.614c.04.203.212.348.419.348h1.175c.211 0 .391-.156.422-.363l.07-.454a.817.817 0 0 1 .508-.644.828.828 0 0 1 .817.098l.371.269a.423.423 0 0 0 .55-.043l.833-.832a.421.421 0 0 0 .05-.539l-.347-.52a.814.814 0 0 1-.074-.804.812.812 0 0 1 .64-.492l.645-.102a.424.424 0 0 0 .36-.418v-1.18a.427.427 0 0 0-.345-.418zm-.507 1.23l-.282.044c-.578.09-1.058.46-1.293.996a1.68 1.68 0 0 0 .149 1.621l.156.23-.328.325-.074-.055a1.681 1.681 0 0 0-1.645-.2c-.55.227-.933.716-1.027 1.305l-.012.094h-.46l-.055-.27a1.669 1.669 0 0 0-1.04-1.253 1.678 1.678 0 0 0-1.617.207l-.23.172-.328-.328.152-.227a1.69 1.69 0 0 0-1.14-2.617l-.286-.043v-.461l.27-.05a1.681 1.681 0 0 0 1.254-1.044 1.679 1.679 0 0 0-.211-1.617l-.168-.23.328-.329.375.258a1.69 1.69 0 0 0 1.594.16c.527-.218.906-.68 1.015-1.242l.086-.45h.461l.043.286c.09.578.461 1.059.996 1.293a1.68 1.68 0 0 0 1.621-.152l.227-.153.328.329-.168.23a1.669 1.669 0 0 0-.21 1.617c.21.543.679.93 1.253 1.043l.266.05zm0 0"/>
    <path d="M18.043 12.766a2.128 2.128 0 0 0 0 4.254 2.128 2.128 0 1 0 0-4.254zm0 3.402a1.275 1.275 0 1 1 1.277-1.273c0 .703-.574 1.273-1.277 1.273zm0 0M18.05 7.18c.923 0 1.677-.75 1.677-1.672 0-.926-.754-1.676-1.676-1.676-.922 0-1.676.75-1.676 1.676 0 .922.754 1.672 1.676 1.672zm0-2.496c.454 0 .825.367.825.824a.824.824 0 0 1-1.648 0c0-.457.37-.824.824-.824zm0 0"/>
    <path d="M19.27.004h-5.957L2.55 10.73l.004.004L0 13.281l10.691 10.715 3.282-3.14L3.762 10.733 13.664.855h5.258l4.226 4.22v5.484H24v-5.84zm-6.516 20.84l-2.047 1.96-9.504-9.519 1.957-1.953zm0 0"/>
</svg>
